X: 1
T: Highland Harry
S: Jean Redpath recording
S: handwritten MS by Barbara McOwen
R: air
Z: 2006 John Chambers <jc:trillian.mit.edu>
M: C
L: 1/4
K: Bbm
f \
| "Bbm"B2 Bf | Bf ec | AB c>>f \
| "Bbm"fe f<a | b>c' ba | "Ab"fe ac | "Bbm"cB B2 ||
| "Bbm"b2 ba | c'b b2 | "Ab"a2 af | ec A>>f \
| "Bbm"fe f>a | bc' b>a | "Ab"fe ac | "Bbm"cB B2 |]
